X: 782
T: Panhandle Rag
C:Leon McAuliffe
B: jims roots
M:4/4
L:1/8
R: jig
Q: 1/4=100
K:D
V:1 
%Q:470
d2 BA D2 |:"D"(F8 | "G"F)A,B,D =FD E2 | "D"(D8 | D2) F2 A2 d2 | "A"c4 (E4 |
E)A,B,D =FD E2 | [1 "D"(D8 | D2) d2 BA D2:|[2 "D"(D4 D)E D2 | "D7"=C6 (3DED ||
"G7"=FDED FDED | =FDE(F F)EF(^F | "D"F)BA=F ^FEDB, |DDC(=C C)DED |
"G7"=FDED FDED | =FDE(F F2)D(3E/F/E/  |  "D"^F A2 A BA=F^F | "A7" A2 d2 BA D2 |
"D"(F8 | "G"F)A,B,D =FD E2 | "D"(D8 | D2) F2 A2 d2 | "A7"c4 (E4 | "G"E)A,B,D =FD E2 | "D"(D8 | D2)|]
: 1
"A"A,A,A, A,2B, | C2E A2c | "D"BAF F2B | A2Bc2e |
"A"A,A,A, A,2B, | C2E A2c | "D"BAF "A"FEC | [1 "E"ECB, "D"B,CB,:| [2 "D"ECB, B,CE ||
"A"AAA A2B | c2e afe | "D"eff f2e | c2e f2a |
"A"eAA A2B | c2e afe | "D"eff f2a | "A"cBB B2c |
"A"eAA A2B | c2e afe | "D"eff "A"f2e | "A"c2e "E"f2b |
"A"aee "D"f2c | "A"eBB "E"Bcc | "D"BAF "E"F2A | "A"CB,B, B,2C ||
% abcbook-tune_id 6298c27952d6cb686e85d096


% abcbook-boost 0
% abcbook-tablature 
% abcbook-transpose 
% abcbook-lastupdated 1654178426415
% abcbook-soundfonts 
% abcbook-repeats 1


